svg/fluentui-system-icons/ic_fluent_share_28_regular.svg

<svg width="28" height="28" viewBox="0 0 28 28" fill="none" xmlns="http://www.w3.org/2000/svg">
<path d="M18.27 3.2105L25.77 10.4605C25.8426 10.5305 25.9003 10.6143 25.9398 10.7071C25.9792 10.7999 25.9995 10.8997 25.9995 11.0005C25.9995 11.1013 25.9792 11.2011 25.9398 11.2939C25.9003 11.3867 25.8426 11.4705 25.77 11.5405L18.27 18.7905C18.2014 18.8581 18.1202 18.9114 18.031 18.9474C17.9417 18.9835 17.8462 19.0015 17.75 19.0005C17.6502 19.0008 17.5515 18.9804 17.46 18.9405C17.324 18.8835 17.2078 18.7876 17.126 18.6649C17.0441 18.5421 17.0003 18.398 17 18.2505V14.5105C10.3 14.7805 7.48 18.5305 7.36 18.6905C7.26453 18.8162 7.13275 18.9095 6.98251 18.9577C6.83226 19.006 6.67081 19.007 6.52 18.9605C6.36957 18.912 6.2383 18.8173 6.14492 18.6898C6.05153 18.5623 6.00081 18.4085 6 18.2505C6 10.2305 12.59 7.7705 17 7.5205V3.7505C17.0003 3.603 17.0441 3.45887 17.126 3.33614C17.2078 3.21341 17.324 3.11754 17.46 3.0605C17.5947 3.00242 17.7436 2.98566 17.8878 3.01237C18.032 3.03908 18.1651 3.10804 18.27 3.2105ZM18.5 13.7505V16.4605L24.17 11.0005L18.5 5.5205V8.2505C18.4974 8.44861 18.4176 8.63787 18.2775 8.77797C18.1374 8.91806 17.9481 8.99791 17.75 9.0005C16.78 9.0005 8.9 9.2205 7.66 16.2805C10.536 14.0404 14.1065 12.8797 17.75 13.0005C17.9481 13.0031 18.1374 13.0829 18.2775 13.223C18.4176 13.3631 18.4974 13.5524 18.5 13.7505ZM22.7225 19.223C22.8626 19.0829 23.0519 19.0031 23.25 19.0005C23.4481 19.0031 23.6374 19.0829 23.7775 19.223C23.9176 19.3631 23.9974 19.5524 24 19.7505V20.2505C24 21.5103 23.4996 22.7184 22.6088 23.6092C21.718 24.5 20.5098 25.0005 19.25 25.0005H7.75C6.49022 25.0005 5.28204 24.5 4.39124 23.6092C3.50045 22.7184 3 21.5103 3 20.2505V8.75049C3 7.49071 3.50045 6.28253 4.39124 5.39173C5.28204 4.50093 6.49022 4.00049 7.75 4.00049H12.25C12.4489 4.00049 12.6397 4.07951 12.7803 4.22016C12.921 4.36081 13 4.55158 13 4.75049C13 4.9494 12.921 5.14017 12.7803 5.28082C12.6397 5.42147 12.4489 5.50049 12.25 5.50049H7.75C6.88886 5.50313 6.06374 5.84638 5.45482 6.45531C4.84589 7.06423 4.50264 7.88935 4.5 8.75049V20.2505C4.50264 21.1116 4.84589 21.9367 5.45482 22.5457C6.06374 23.1546 6.88886 23.4979 7.75 23.5005H19.25C20.1111 23.4979 20.9363 23.1546 21.5452 22.5457C22.1541 21.9367 22.4974 21.1116 22.5 20.2505V19.7505C22.5026 19.5524 22.5824 19.3631 22.7225 19.223Z" fill="#212121"/>
</svg>

<svg xmlns="http://www.w3.org/2000/svg" width="28" height="28"><path d="m18.27 3.21 7.5 7.25a.751.751 0 0 1 0 1.08l-7.5 7.25a.73.73 0 0 1-.52.21.75.75 0 0 1-.75-.75v-3.74c-6.7.27-9.52 4.02-9.64 4.18a.77.77 0 0 1-.84.27.75.75 0 0 1-.52-.71c0-8.02 6.59-10.48 11-10.73V3.75a.75.75 0 0 1 .46-.69.74.74 0 0 1 .81.15Zm.23 10.54v2.71L24.17 11 18.5 5.52v2.73a.76.76 0 0 1-.75.75c-.97 0-8.85.22-10.09 7.28A15.58 15.58 0 0 1 17.75 13a.76.76 0 0 1 .75.75Zm4.223 5.473A.76.76 0 0 1 23.25 19a.76.76 0 0 1 .75.75v.5A4.75 4.75 0 0 1 19.25 25H7.75A4.75 4.75 0 0 1 3 20.25V8.75A4.75 4.75 0 0 1 7.75 4h4.5a.75.75 0 1 1 0 1.5h-4.5A3.26 3.26 0 0 0 4.5 8.75v11.5a3.26 3.26 0 0 0 3.25 3.25h11.5a3.26 3.26 0 0 0 3.25-3.25v-.5a.76.76 0 0 1 .223-.527Z"/></svg>
